src/assets/svg/icons/fa/nuevos/classic/duotone/face-zipper classic duotone.svg

<svg xmlns="http://www.w3.org/2000/svg" viewBox="0 0 512 512"><!--! Font Awesome Pro 6.4.0 by @fontawesome - https://fontawesome.com License - https://fontawesome.com/license (Commercial License) Copyright 2023 Fonticons, Inc. --><defs><style>.fa-secondary{opacity:.4}</style></defs><path class="fa-primary" d="M208.4 208a32 32 0 1 0 -64 0 32 32 0 1 0 64 0zM389.2 394.3l29.1 58.1c14.7 29.3 53.7 35.6 76.9 12.5l1.8-1.8c23.2-23.2 16.8-62.2-12.5-76.9l-58.1-29.1c-6.2-3.1-13.6-1.9-18.5 3l-15.7 15.7c-4.9 4.9-6.1 12.3-3 18.5zm91.3 38.2l-16 16c-4.7 4.7-12.3 4.7-17 0s-4.7-12.3 0-17l16-16c4.7-4.7 12.3-4.7 17 0s4.7 12.3 0 17zM336.4 240a32 32 0 1 0 0-64 32 32 0 1 0 0 64z"/><path class="fa-secondary" d="M512 256c0 34.9-7 68.1-19.6 98.4l-51.8-25.9c-18.5-9.2-40.8-5.6-55.4 9l-15.7 15.7c-14.6 14.6-18.2 36.9-9 55.4l29.1 58.1c1 2 2 3.9 3.1 5.7C353.2 497.5 306.3 512 256 512C114.6 512 0 397.4 0 256S114.6 0 256 0S512 114.6 512 256zM208.4 208a32 32 0 1 0 -64 0 32 32 0 1 0 64 0zm128 32a32 32 0 1 0 0-64 32 32 0 1 0 0 64zM128 320c-8.8 0-16 7.2-16 16v32c0 8.8 7.2 16 16 16s16-7.2 16-16V336c0-8.8-7.2-16-16-16zm80 16c0-8.8-7.2-16-16-16s-16 7.2-16 16v32c0 8.8 7.2 16 16 16s16-7.2 16-16V336zm48-16c-8.8 0-16 7.2-16 16v32c0 8.8 7.2 16 16 16s16-7.2 16-16V336c0-8.8-7.2-16-16-16zm80 16c0-8.8-7.2-16-16-16s-16 7.2-16 16v32c0 8.8 7.2 16 16 16s16-7.2 16-16V336z"/></svg>

<svg xmlns="http://www.w3.org/2000/svg" viewBox="0 0 512 512"><defs><style>.fa-secondary{opacity:.4}</style></defs><path class="fa-primary" d="M208.4 208C208.4 225.7 194 240 176.4 240C158.7 240 144.4 225.7 144.4 208C144.4 190.3 158.7 176 176.4 176C194 176 208.4 190.3 208.4 208zM392.2 375.8L407.8 360.2C412.7 355.3 420.2 354.1 426.3 357.2L484.4 386.2C513.7 400.9 520.1 439.9 496.9 463.1L495.1 464.9C471.9 488.1 432.9 481.7 418.2 452.4L389.2 394.3C386.1 388.2 387.3 380.7 392.2 375.8L392.2 375.8zM480.5 432.5C485.2 427.8 485.2 420.2 480.5 415.5C475.8 410.8 468.2 410.8 463.5 415.5L447.5 431.5C442.8 436.2 442.8 443.8 447.5 448.5C452.2 453.2 459.8 453.2 464.5 448.5L480.5 432.5zM304.4 208C304.4 190.3 318.7 176 336.4 176C354 176 368.4 190.3 368.4 208C368.4 225.7 354 240 336.4 240C318.7 240 304.4 225.7 304.4 208z"/><path class="fa-secondary" d="M512 256C512 290.9 505 324.1 492.4 354.4L440.6 328.5C422.1 319.3 399.8 322.9 385.2 337.5L369.5 353.2C354.9 367.8 351.3 390.1 360.5 408.6L389.6 466.7C390.6 468.7 391.6 470.6 392.7 472.5C353.2 497.5 306.3 512 256 512C114.6 512 0 397.4 0 256C0 114.6 114.6 0 256 0C397.4 0 512 114.6 512 256zM176.4 176C158.7 176 144.4 190.3 144.4 208C144.4 225.7 158.7 240 176.4 240C194 240 208.4 225.7 208.4 208C208.4 190.3 194 176 176.4 176zM336.4 240C354 240 368.4 225.7 368.4 208C368.4 190.3 354 176 336.4 176C318.7 176 304.4 190.3 304.4 208C304.4 225.7 318.7 240 336.4 240zM112 336V368C112 376.8 119.2 384 128 384C136.8 384 144 376.8 144 368V336C144 327.2 136.8 320 128 320C119.2 320 112 327.2 112 336zM208 336C208 327.2 200.8 320 192 320C183.2 320 176 327.2 176 336V368C176 376.8 183.2 384 192 384C200.8 384 208 376.8 208 368V336zM240 336V368C240 376.8 247.2 384 256 384C264.8 384 272 376.8 272 368V336C272 327.2 264.8 320 256 320C247.2 320 240 327.2 240 336zM336 336C336 327.2 328.8 320 320 320C311.2 320 304 327.2 304 336V368C304 376.8 311.2 384 320 384C328.8 384 336 376.8 336 368V336z"/></svg>
